X:15463
T:Sinclair's Reel
M:2/2
L:1/8
S:Armitt MS
K:G Major
B|A/2A/2A cA dccA|Bggd BGGB|A/2A/2A cA dBcA|Baae cA2:||:g|(a/2g/2f/2e/2)
 ca eaca|Bggd BGGg|(a/2g/2f/2e/2) ca eaca|Baae cAA2:||
